src/assets/icons/icon-kakao.svg

<svg width="39" height="39" viewBox="0 0 39 39" fill="none" xmlns="http://www.w3.org/2000/svg">
<rect x="0.5" y="0.5" width="37.3721" height="37.3721" rx="18.686" fill="#F2C94C" stroke="#F2C94C"/>
<path d="M27.0346 18.75C27.0376 19.901 26.7687 21.0365 26.2497 22.0639C25.6344 23.2951 24.6884 24.3306 23.5178 25.0546C22.3472 25.7785 20.9982 26.1622 19.6218 26.1628C18.4707 26.1658 17.3353 25.8968 16.3078 25.3779L11.3369 27.0349L12.9939 22.0639C12.4749 21.0365 12.206 19.901 12.209 18.75C12.2095 17.3736 12.5933 16.0246 13.3172 14.8539C14.0411 13.6833 15.0767 12.7374 16.3078 12.1221C17.3353 11.6031 18.4707 11.3342 19.6218 11.3372H20.0578C21.8756 11.4375 23.5925 12.2047 24.8798 13.492C26.1671 14.7793 26.9343 16.4962 27.0346 18.3139V18.75Z" fill="#422525"/>
</svg>

<svg width="39" height="39" fill="none" xmlns="http://www.w3.org/2000/svg"><rect x=".5" y=".5" width="37.372" height="37.372" rx="18.686" fill="#F2C94C" stroke="#F2C94C"/><path d="M27.035 18.75a7.307 7.307 0 0 1-.785 3.314 7.413 7.413 0 0 1-6.628 4.099 7.31 7.31 0 0 1-3.314-.785l-4.971 1.657 1.657-4.971a7.307 7.307 0 0 1-.785-3.314 7.413 7.413 0 0 1 4.099-6.628 7.308 7.308 0 0 1 3.314-.785h.436a7.395 7.395 0 0 1 6.977 6.977v.436Z" fill="#422525"/></svg>
